services/drupal/web/themes/epa_theme/images/_sprite-source-files/warning.svg

<svg viewBox="0 0 148 136" xmlns="http://www.w3.org/2000/svg"><path d="m145.695 120.388-62.569-114.715c-.924-1.684-2.2-3.015-3.832-3.992-1.628-.978-3.394-1.467-5.295-1.467s-3.667.49-5.296 1.467-2.906 2.308-3.829 3.992l-62.571 114.715c-1.901 3.423-1.847 6.845.163 10.267.924 1.574 2.187 2.824 3.789 3.746 1.603.924 3.327 1.387 5.174 1.387h125.141c1.849 0 3.572-.463 5.175-1.387 1.603-.922 2.864-2.172 3.789-3.746 2.01-3.423 2.064-6.844.161-10.267zm-61.265-8.148c0 .76-.259 1.398-.773 1.914-.516.516-1.127.773-1.834.773h-15.643c-.706 0-1.317-.257-1.833-.773-.516-.517-.774-1.154-.774-1.914v-15.48c0-.76.258-1.397.774-1.914.516-.516 1.126-.773 1.833-.773h15.642c.707 0 1.318.257 1.834.773.515.517.773 1.154.773 1.914v15.48zm-.162-30.47c-.056.543-.341.991-.856 1.344-.517.354-1.154.529-1.915.529h-15.073c-.76 0-1.412-.176-1.955-.529-.544-.354-.815-.801-.815-1.346l-1.385-37.231c0-.761.272-1.331.815-1.711.706-.597 1.358-.896 1.956-.896h17.924c.598 0 1.25.298 1.956.896.543.38.813.896.813 1.548z"/></svg>

<svg viewBox="0 0 148 136" xmlns="http://www.w3.org/2000/svg"><path d="M145.695,120.388 L83.126,5.673 C82.202,3.989 80.926,2.658 79.294,1.681 C77.666,0.703 75.9,0.214 73.999,0.214 C72.098,0.214 70.332,0.704 68.703,1.681 C67.074,2.658 65.797,3.989 64.874,5.673 L2.303,120.388 C0.402,123.811 0.456,127.233 2.466,130.655 C3.39,132.229 4.653,133.479 6.255,134.401 C7.858,135.325 9.582,135.788 11.429,135.788 L136.57,135.788 C138.419,135.788 140.142,135.325 141.745,134.401 C143.348,133.479 144.609,132.229 145.534,130.655 C147.544,127.232 147.598,123.811 145.695,120.388 Z M84.43,112.24 C84.43,113 84.171,113.638 83.657,114.154 C83.141,114.67 82.53,114.927 81.823,114.927 L66.18,114.927 C65.474,114.927 64.863,114.67 64.347,114.154 C63.831,113.637 63.573,113 63.573,112.24 L63.573,96.76 C63.573,96 63.831,95.363 64.347,94.846 C64.863,94.33 65.473,94.073 66.18,94.073 L81.822,94.073 C82.529,94.073 83.14,94.33 83.656,94.846 C84.171,95.363 84.429,96 84.429,96.76 L84.429,112.24 L84.43,112.24 Z M84.268,81.77 C84.212,82.313 83.927,82.761 83.412,83.114 C82.895,83.468 82.258,83.643 81.497,83.643 L66.424,83.643 C65.664,83.643 65.012,83.467 64.469,83.114 C63.925,82.76 63.654,82.313 63.654,81.768 L62.269,44.537 C62.269,43.776 62.541,43.206 63.084,42.826 C63.79,42.229 64.442,41.93 65.04,41.93 L82.964,41.93 C83.562,41.93 84.214,42.228 84.92,42.826 C85.463,43.206 85.733,43.722 85.733,44.374 L84.268,81.77 Z"/></svg>
